Obsidian/actions/24s/lighttable.svg

<svg height="24" viewBox="0 0 24 24" width="24" xmlns="http://www.w3.org/2000/svg"><path d="m8 1c-3.8541 0-7 3.1458-7 7 0 3.854 3.1459 7 7 7 3.854 0 7-3.146 7-7 0-3.8542-3.146-7-7-7zm3.535156 3.4667969c.03906.041673.077625.0839661.115235.1269531.137.1468.264812.3020437.382812.4648438.06898.093384.134952.1891512.197266.2871093.109.1731.205015.3543156.291015.5410157.03868.0771709.074735.155305.109375.234375l.007813.0234374c.087.2189.154937.4466875.210937.6796876.02646.1001836.050123.2011.070313.3027343.02825.1642302.048827.3298639.060547.4960938.009.110492.013975.2211844.015625.3320312 0 .0156.003906.0292219.003906.0449219 0 .0107-.001953.02065-.001953.03125-.0021.079517-.005819.1589548-.011719.2382812-.005.0940001-.008578.1867969-.017578.2792969-.001.0032 0 .0065655 0 .0097657l-.001953.0136718c-.003.029-.009672.0571375-.013672.0859375v.0019531c-.017.1271001-.038453.2511001-.064453.375-.0089.0352342-.017624.0704378-.027344.1054688-.053.2305-.124984.4532219-.208984.6699219-.0069.020245-.014355.0403919-.021485.0605469-.015.0357-.026015.0721218-.041015.1074218-.01853.0374034-.037181.0744014-.056641.1113284-.085.186-.182062.364109-.289062.537109-.02282.03865-.046463.077214-.070313.115235-.017.025-.029875.053125-.046875.078124-.02684.03637-.054211.071792-.082031.107422-.13.179-.267922.351719-.419922.511719-.02891.03238-.058141.064083-.087891.095703-.04103.03837-.0827.076321-.125.113282-.152.142999-.313423.274484-.482421.396484-.034991.02646-.069799.052595-.105469.078125-.013.009-.027016.020297-.041016.029297-.04523.02806-.090619.055431-.136719.082031-.172.108-.352062.205016-.539062.291016-.03151.01533-.063883.030252-.095703.044921-.0333005.015001-.0642565.034829-.0976565.048829-.01368.0047-.0272956.009073-.0410156.013671-.246.099002-.501625.177329-.765625.236329l-.03125.007812c-.0428.009-.0837531.021297-.1269531.029297-.0538871.0096-.1079374.017611-.1621094.025391-.1086.017-.217325.033923-.328125.044921-.084526.005801-.1691934.010219-.2539063.011719-.0684.003-.1360781.011719-.2050781.011719-.007 0-.0124313-.001953-.0195312-.001953-.2731201-.003044-.5454848-.028634-.8144532-.076172-.0206-.004-.042-.005766-.0625-.009766-.0956569-.019214-.1907872-.041629-.2851562-.066406-.2298-.056-.455975-.122031-.671875-.207031h-.0019532c-.0937029-.0395-.1862233-.081813-.2773437-.126953-.1757-.083-.3461656-.173391-.5097656-.275391-.1054284-.065807-.2083604-.135506-.3085938-.208984-.1669-.122-.3264625-.253532-.4765625-.394532-.0363067-.032142-.0720657-.06447-.1074218-.097656z" fill="#bebebe" transform="translate(4 4)"/></svg>

<svg xmlns="http://www.w3.org/2000/svg" width="24" height="24" viewBox="0 0 24 24">
 <defs>
  <style id="current-color-scheme" type="text/css">
   .ColorScheme-Text { color:#bebebe; } .ColorScheme-Highlight { color:#4285f4; }
  </style>
 </defs>
 <path style="fill:currentColor" class="ColorScheme-Text" d="M 8 1 C 4.1459 1 1 4.1458 1 8 C 1 11.854 4.1459 15 8 15 C 11.854 15 15 11.854 15 8 C 15 4.1458 11.854 1 8 1 z M 11.535156 4.4667969 C 11.574216 4.5084699 11.612781 4.550763 11.650391 4.59375 C 11.787391 4.74055 11.915203 4.8957937 12.033203 5.0585938 C 12.102183 5.1519778 12.168155 5.247745 12.230469 5.3457031 C 12.339469 5.5188031 12.435484 5.7000187 12.521484 5.8867188 C 12.560164 5.9638897 12.596219 6.0420238 12.630859 6.1210938 L 12.638672 6.1445312 C 12.725672 6.3634312 12.793609 6.5912187 12.849609 6.8242188 C 12.876069 6.9244024 12.899732 7.0253188 12.919922 7.1269531 C 12.948172 7.2911833 12.968749 7.456817 12.980469 7.6230469 C 12.989469 7.7335389 12.994444 7.8442313 12.996094 7.9550781 C 12.996094 7.9706781 13 7.9843 13 8 C 13 8.0107 12.998047 8.02065 12.998047 8.03125 C 12.995947 8.110767 12.992228 8.1902048 12.986328 8.2695312 C 12.981328 8.3635313 12.97775 8.4563281 12.96875 8.5488281 C 12.96775 8.5520281 12.96875 8.5553936 12.96875 8.5585938 L 12.966797 8.5722656 C 12.963797 8.6012656 12.957125 8.6294031 12.953125 8.6582031 L 12.953125 8.6601562 C 12.936125 8.7872563 12.914672 8.9112563 12.888672 9.0351562 C 12.879772 9.0703904 12.871048 9.105594 12.861328 9.140625 C 12.808328 9.371125 12.736344 9.5938469 12.652344 9.8105469 C 12.645444 9.8307919 12.637989 9.8509388 12.630859 9.8710938 C 12.615859 9.9067938 12.604844 9.9432156 12.589844 9.9785156 C 12.571314 10.015919 12.552663 10.052917 12.533203 10.089844 C 12.448203 10.275844 12.351141 10.453953 12.244141 10.626953 C 12.221321 10.665603 12.197678 10.704167 12.173828 10.742188 C 12.156828 10.767188 12.143953 10.795313 12.126953 10.820312 C 12.100113 10.856682 12.072742 10.892104 12.044922 10.927734 C 11.914922 11.106734 11.777 11.279453 11.625 11.439453 C 11.59609 11.471833 11.566859 11.503536 11.537109 11.535156 C 11.496079 11.573526 11.454409 11.611477 11.412109 11.648438 C 11.260109 11.791437 11.098686 11.922922 10.929688 12.044922 C 10.894697 12.071382 10.859889 12.097517 10.824219 12.123047 C 10.811219 12.132047 10.797203 12.143344 10.783203 12.152344 C 10.737973 12.180404 10.692584 12.207775 10.646484 12.234375 C 10.474484 12.342375 10.294422 12.439391 10.107422 12.525391 C 10.075912 12.540721 10.043539 12.555643 10.011719 12.570312 C 9.9784185 12.585313 9.9474625 12.605141 9.9140625 12.619141 C 9.9003825 12.623841 9.8867669 12.628214 9.8730469 12.632812 C 9.6270469 12.731814 9.3714219 12.810141 9.1074219 12.869141 L 9.0761719 12.876953 C 9.0333719 12.885953 8.9924188 12.89825 8.9492188 12.90625 C 8.8953317 12.91585 8.8412814 12.923861 8.7871094 12.931641 C 8.6785094 12.948641 8.5697844 12.965564 8.4589844 12.976562 C 8.3744584 12.982363 8.289791 12.986781 8.2050781 12.988281 C 8.1366781 12.991281 8.069 13 8 13 C 7.993 13 7.9875687 12.998047 7.9804688 12.998047 C 7.7073487 12.995003 7.434984 12.969413 7.1660156 12.921875 C 7.1454156 12.917875 7.1240156 12.916109 7.1035156 12.912109 C 7.0078587 12.892895 6.9127284 12.87048 6.8183594 12.845703 C 6.5885594 12.789703 6.3623844 12.723672 6.1464844 12.638672 L 6.1445312 12.638672 C 6.0508283 12.599172 5.9583079 12.556859 5.8671875 12.511719 C 5.6914875 12.428719 5.5210219 12.338328 5.3574219 12.236328 C 5.2519935 12.170521 5.1490615 12.100822 5.0488281 12.027344 C 4.8819281 11.905344 4.7223656 11.773812 4.5722656 11.632812 C 4.5359589 11.60067 4.5001999 11.568342 4.4648438 11.535156 L 11.535156 4.4667969 z" transform="translate(4 4)"/>
</svg>
